OFDR/img/documents/factory.svg

<svg width="67" height="64" viewBox="0 0 67 64" fill="none" xmlns="http://www.w3.org/2000/svg">
<g id="factory">
<path id="Path" d="M52 13C52.2629 13 52.5207 12.893 52.7066 12.707C52.893 12.5211 53 12.2633 53 12C53 11.7371 52.893 11.4793 52.7066 11.293C52.5207 11.107 52.2629 11 52 11C51.7359 11 51.4789 11.107 51.2918 11.293C51.1059 11.4793 51 11.7371 51 12C51 12.2633 51.1059 12.5211 51.2918 12.707C51.4789 12.893 51.7359 13 52 13Z" fill="#86ADEF"/>
<path id="Shape" fill-rule="evenodd" clip-rule="evenodd" d="M55.5764 18.647L66.3069 24.1128C66.7337 24.3301 67 24.7539 67 25.2158V62.75C67 63.4404 66.4142 64 65.6914 64H1.30859C0.5858 64 0 63.4404 0 62.75V19.75C0 19.0596 0.5858 18.5 1.30859 18.5V12.6201C1.30859 8.86084 4.51056 5.80225 8.44554 5.80225H12.0416C12.998 4.9375 14.2315 4.47314 15.5339 4.49805C15.8069 4.50293 16.0763 4.52881 16.3406 4.57471C17.942 1.79785 21.0525 0 24.4247 0C28.3127 0 31.7702 2.36768 33.0824 5.77881C33.2843 5.76074 33.4872 5.75146 33.6912 5.75146C36.8052 5.75146 39.4117 7.8667 40.0184 10.6724H45.9812C46.704 10.6724 47.2898 11.2319 47.2898 11.9224C47.2898 12.6128 46.704 13.1724 45.9812 13.1724H38.8427C38.1199 13.1724 37.5341 12.6128 37.5341 11.9224C37.5341 9.89844 35.81 8.25146 33.6912 8.25146C33.3175 8.25146 32.9495 8.30371 32.5963 8.40381C32.0754 8.55176 31.5841 8.80811 31.1716 9.15039C30.8286 9.43555 30.5434 9.77197 30.3241 10.1504C30.0859 10.563 29.6386 10.7959 29.1781 10.7959C28.9639 10.7959 28.7466 10.7456 28.5463 10.6396C27.9134 10.3062 27.6839 9.54541 28.0336 8.94141C28.4011 8.30566 28.879 7.74121 29.4546 7.26367C29.7986 6.97803 30.1764 6.729 30.5761 6.51855C29.6034 4.14111 27.1635 2.5 24.4247 2.5C21.7114 2.5 19.2343 4.12549 18.261 6.54443C18.1296 6.87061 17.8613 7.12939 17.5214 7.2583C17.1809 7.38672 16.8001 7.37354 16.4704 7.22168C16.1616 7.07959 15.8294 7.00391 15.4833 6.99756C14.8602 6.98877 14.2657 7.21729 13.8057 7.64795C13.3277 8.09619 13.0532 8.71631 13.0532 9.34961C13.0532 10.604 14.1221 11.625 15.4353 11.625H20.3762C21.099 11.625 21.6848 12.1846 21.6848 12.875C21.6848 13.5654 21.099 14.125 20.3762 14.125H15.4353C12.679 14.125 10.436 11.9829 10.436 9.34961C10.436 8.99609 10.479 8.64502 10.5587 8.30225H8.44554C5.95359 8.30225 3.92578 10.2393 3.92578 12.6201V18.5H6.23678V16.73C6.23678 15.0522 7.6655 13.6875 9.42188 13.6875C10.1447 13.6875 10.7305 14.2471 10.7305 14.9375C10.7305 15.6279 10.1447 16.1875 9.42188 16.1875C9.10853 16.1875 8.85397 16.4307 8.85397 16.73V18.5H10.7305C11.4533 18.5 12.0391 19.0596 12.0391 19.75V33.5H32.1914V19.75C32.1914 19.311 32.4327 18.9038 32.8268 18.6782C33.2209 18.4521 33.7101 18.4404 34.1154 18.647L42.9219 23.1328V19.75C42.9219 19.311 43.1631 18.9043 43.5573 18.6782C43.9514 18.4521 44.4406 18.4404 44.8459 18.647L53.6523 23.1328V19.75C53.6523 19.311 53.8936 18.9038 54.2877 18.6782C54.6818 18.4521 55.171 18.4404 55.5764 18.647ZM9.42188 26H2.61719V56.5H9.42188V26ZM9.42188 23.5H2.61719V21H9.42188V23.5ZM9.42188 59H2.61719V61.5H9.42188V59ZM33.5 61.5H12.0391V41H23.8164C24.5392 41 25.125 40.4404 25.125 39.75C25.125 39.0596 24.5392 38.5 23.8164 38.5H12.0391V36H51.2969V61.5H33.5ZM53.9141 61.5H64.3828V25.9653L56.2695 21.833V25.2153C56.2695 25.6548 56.0283 26.0615 55.6341 26.2876C55.24 26.5132 54.7508 26.5254 54.3455 26.3184L45.5391 21.833V25.2158C45.5391 25.6548 45.2978 26.0615 44.9037 26.2876C44.5096 26.5132 44.0204 26.5254 43.615 26.3188L34.8086 21.833V33.5H52.6055C53.3283 33.5 53.9141 34.0596 53.9141 34.75V61.5Z" fill="#86ADEF"/>
<path id="Shape_2" fill-rule="evenodd" clip-rule="evenodd" d="M15.3235 44H21.6765C22.4075 44 23 44.5925 23 45.3235V51.6765C23 52.4075 22.4075 53 21.6765 53H15.3235C14.5925 53 14 52.4075 14 51.6765V45.3235C14 44.5925 14.5925 44 15.3235 44ZM16.6471 50.3529H20.3529V46.6471H16.6471V50.3529Z" fill="#86ADEF"/>
<path id="Shape_3" fill-rule="evenodd" clip-rule="evenodd" d="M28.3235 44H34.6765C35.4075 44 36 44.5925 36 45.3235V51.6765C36 52.4075 35.4075 53 34.6765 53H28.3235C27.5925 53 27 52.4075 27 51.6765V45.3235C27 44.5925 27.5925 44 28.3235 44ZM29.6471 50.3529H33.3529V46.6471H29.6471V50.3529Z" fill="#86ADEF"/>
<path id="Shape_4" fill-rule="evenodd" clip-rule="evenodd" d="M41.3235 44H47.6765C48.4075 44 49 44.5925 49 45.3235V51.6765C49 52.4075 48.4075 53 47.6765 53H41.3235C40.5925 53 40 52.4075 40 51.6765V45.3235C40 44.5925 40.5925 44 41.3235 44ZM42.6471 50.3529H46.3529V46.6471H42.6471V50.3529Z" fill="#86ADEF"/>
<path id="Path_2" d="M28 40C28.2629 40 28.5207 39.893 28.7066 39.707C28.893 39.5211 29 39.2629 29 39C29 38.7371 28.893 38.4789 28.7066 38.293C28.5207 38.107 28.2629 38 28 38C27.7359 38 27.4789 38.107 27.293 38.293C27.1059 38.4789 27 38.7371 27 39C27 39.2629 27.1059 39.5211 27.293 39.707C27.4789 39.893 27.7367 40 28 40Z" fill="#86ADEF"/>
</g>
</svg>

<svg width="67" height="64" fill="none" xmlns="http://www.w3.org/2000/svg"><g fill="#86ADEF"><path d="M52 13c.263 0 .52-.107.707-.293.186-.186.293-.444.293-.707 0-.263-.107-.52-.293-.707A1.007 1.007 0 0052 11a1.01 1.01 0 00-.708.293 1.006 1.006 0 000 1.414c.187.186.444.293.708.293z"/><path fill-rule="evenodd" clip-rule="evenodd" d="M55.576 18.647l10.73 5.466c.428.217.694.64.694 1.103V62.75c0 .69-.586 1.25-1.309 1.25H1.31C.586 64 0 63.44 0 62.75v-43c0-.69.586-1.25 1.309-1.25v-5.88c0-3.76 3.202-6.818 7.137-6.818h3.596a5.032 5.032 0 013.492-1.304c.273.005.542.03.807.077C17.942 1.798 21.052 0 24.425 0c3.888 0 7.345 2.368 8.657 5.779.202-.018.405-.028.61-.028 3.113 0 5.72 2.116 6.326 4.921h5.963c.723 0 1.309.56 1.309 1.25s-.586 1.25-1.309 1.25h-7.138c-.723 0-1.309-.56-1.309-1.25 0-2.024-1.724-3.67-3.843-3.67a4.02 4.02 0 00-1.095.152 3.919 3.919 0 00-1.424.746 3.732 3.732 0 00-.848 1 1.318 1.318 0 01-1.146.646c-.214 0-.431-.05-.632-.156-.633-.334-.862-1.095-.512-1.699a6.22 6.22 0 011.42-1.677 6.484 6.484 0 011.122-.745C29.603 4.14 27.163 2.5 24.425 2.5c-2.714 0-5.19 1.625-6.164 4.044a1.28 1.28 0 01-.74.714c-.34.129-.72.116-1.05-.036a2.455 2.455 0 00-.988-.224 2.39 2.39 0 00-1.677.65 2.35 2.35 0 00-.753 1.702c0 1.254 1.07 2.275 2.382 2.275h4.941c.723 0 1.309.56 1.309 1.25s-.586 1.25-1.309 1.25h-4.94c-2.757 0-5-2.142-5-4.775 0-.354.043-.705.123-1.048H8.446c-2.492 0-4.52 1.937-4.52 4.318v5.88h2.31v-1.77c0-1.678 1.43-3.043 3.186-3.043.723 0 1.308.56 1.308 1.25s-.585 1.25-1.308 1.25a.556.556 0 00-.568.543v1.77h1.877c.722 0 1.308.56 1.308 1.25V33.5h20.152V19.75c0-.439.242-.846.636-1.072a1.36 1.36 0 011.288-.031l8.807 4.486V19.75c0-.439.241-.846.635-1.072a1.36 1.36 0 011.289-.031l8.806 4.486V19.75c0-.439.242-.846.636-1.072a1.36 1.36 0 011.288-.031zM9.422 26H2.617v30.5h6.805V26zm0-2.5H2.617V21h6.805v2.5zm0 35.5H2.617v2.5h6.805V59zM33.5 61.5H12.04V41h11.776c.723 0 1.309-.56 1.309-1.25s-.586-1.25-1.309-1.25H12.04V36h39.258v25.5H33.5zm20.414 0h10.469V25.965l-8.113-4.132v3.382c0 .44-.242.846-.636 1.073a1.36 1.36 0 01-1.288.03l-8.807-4.485v3.383c0 .439-.241.845-.635 1.072a1.362 1.362 0 01-1.289.03l-8.806-4.485V33.5h17.797c.722 0 1.308.56 1.308 1.25V61.5z"/><path fill-rule="evenodd" clip-rule="evenodd" d="M15.323 44h6.354c.73 0 1.323.593 1.323 1.324v6.352c0 .731-.593 1.324-1.323 1.324h-6.354A1.323 1.323 0 0114 51.676v-6.352c0-.731.592-1.324 1.323-1.324zm1.324 6.353h3.706v-3.706h-3.706v3.706zM28.323 44h6.353c.731 0 1.324.593 1.324 1.324v6.352c0 .731-.593 1.324-1.324 1.324h-6.353A1.323 1.323 0 0127 51.676v-6.352c0-.731.593-1.324 1.323-1.324zm1.324 6.353h3.706v-3.706h-3.706v3.706zM41.324 44h6.352c.731 0 1.324.593 1.324 1.324v6.352c0 .731-.593 1.324-1.324 1.324h-6.352A1.323 1.323 0 0140 51.676v-6.352c0-.731.593-1.324 1.324-1.324zm1.323 6.353h3.706v-3.706h-3.706v3.706z"/><path d="M28 40c.263 0 .52-.107.707-.293.186-.186.293-.444.293-.707 0-.263-.107-.521-.293-.707A1.007 1.007 0 0028 38a1.003 1.003 0 00-.707 1.707c.186.186.444.293.707.293z"/></g></svg>
